dist/img/icons/main/close-circle.svg

<svg width="20" height="19" viewBox="0 0 20 19" fill="none" xmlns="http://www.w3.org/2000/svg">
<circle cx="10" cy="9.5" r="9.5" fill="#EC3B3B"/>
<path d="M10.6903 10L14.4046 13.7142C14.5318 13.8415 14.5318 14.0472 14.4046 14.1745L14.1745 14.4046C14.0472 14.5318 13.8415 14.5318 13.7142 14.4046L10 10.6903L6.28576 14.4019C6.15852 14.5291 5.95277 14.5291 5.82554 14.4019L5.59543 14.1718C5.46819 14.0445 5.46819 13.8388 5.59543 13.7115L9.30967 10L5.59814 6.28576C5.4709 6.15852 5.4709 5.95278 5.59814 5.82554L5.82824 5.59543C5.95548 5.46819 6.16123 5.46819 6.28846 5.59543L10 9.30967L13.7142 5.59543C13.8415 5.46819 14.0472 5.46819 14.1745 5.59543L14.4046 5.82554C14.5318 5.95278 14.5318 6.15852 14.4046 6.28576L10.6903 10Z" fill="white"/>
</svg>

<svg width="20" height="19" fill="none" xmlns="http://www.w3.org/2000/svg"><circle cx="10" cy="9.5" r="9.5" fill="#EC3B3B"/><path d="M10.69 10l3.715 3.714a.325.325 0 010 .46l-.23.23a.325.325 0 01-.46 0L10 10.69l-3.714 3.712a.325.325 0 01-.46 0l-.23-.23a.325.325 0 010-.46L9.31 10 5.598 6.286a.325.325 0 010-.46l.23-.23a.325.325 0 01.46 0L10 9.31l3.714-3.715a.325.325 0 01.46 0l.23.23a.325.325 0 010 .46L10.69 10z" fill="#fff"/></svg>
